packages/foundations/assets/icons/functional/images/security/lock_open_14_filled.svg

<svg width="14" height="14" viewBox="0 0 14 14" fill="none" xmlns="http://www.w3.org/2000/svg">
<g clip-path="url(#clip0_2214_5838)">
<path fill-rule="evenodd" clip-rule="evenodd" d="M7.00005 1.39999C8.35569 1.39999 9.50942 2.37002 9.75297 3.68867C9.82319 4.06884 9.57192 4.43394 9.19175 4.50416C8.83874 4.56936 8.49871 4.35736 8.39571 4.02236L8.37626 3.94294C8.25479 3.2853 7.67758 2.79999 7.00005 2.79999C6.26223 2.79999 5.65776 3.37093 5.60433 4.0951L5.60049 4.19955V5.61201H9.80005C10.5732 5.61201 11.2 6.23881 11.2 7.01201V11.2C11.2 11.9732 10.5732 12.6 9.80005 12.6H4.20005C3.42685 12.6 2.80005 11.9732 2.80005 11.2V7.01201C2.80005 6.23881 3.42685 5.61201 4.20005 5.61201L4.20049 4.19955C4.20049 2.6534 5.4539 1.39999 7.00005 1.39999ZM7.00005 7.69999C6.64106 7.69999 6.34519 7.97022 6.30476 8.31836L6.30005 8.39999V9.79656L6.30476 9.8782C6.34519 10.2263 6.64106 10.4966 7.00005 10.4966C7.35903 10.4966 7.6549 10.2263 7.69534 9.8782L7.70005 9.79656V8.39999L7.69534 8.31836C7.6549 7.97022 7.35903 7.69999 7.00005 7.69999Z" fill="#1A1C1F"/>
</g>
<defs>
<clipPath id="clip0_2214_5838">
<rect width="14" height="14" fill="white"/>
</clipPath>
</defs>
</svg>

<svg xmlns="http://www.w3.org/2000/svg" width="14" height="14" fill="none"><g clip-path="url(#a)"><path fill="#1A1C1F" fill-rule="evenodd" d="M7 1.4a2.8 2.8 0 0 1 2.753 2.289.7.7 0 0 1-1.357.333l-.02-.08a1.4 1.4 0 0 0-2.772.153L5.6 4.2v1.412h4.2a1.4 1.4 0 0 1 1.4 1.4V11.2a1.4 1.4 0 0 1-1.4 1.4H4.2a1.4 1.4 0 0 1-1.4-1.4V7.012a1.4 1.4 0 0 1 1.4-1.4V4.2A2.8 2.8 0 0 1 7 1.4m0 6.3a.7.7 0 0 0-.695.618L6.3 8.4v1.397l.005.081a.7.7 0 0 0 1.39 0l.005-.081V8.4l-.005-.082A.7.7 0 0 0 7 7.7" clip-rule="evenodd"/></g><defs><clipPath id="a"><path fill="#fff" d="M0 0h14v14H0z"/></clipPath></defs></svg>
